X:1
T:Title
%%score { ( 1 3 ) | ( 2 4 ) }
L:1/8
M:4/4
K:Bb
V:1 treble nm="Grand Piano"
V:3 treble 
V:2 bass 
V:4 bass 
V:1
 z4 z2[Q:1/4=100] [B,D]>[CE] | [DF]>[_D=E] [=DF]>[_EG] [DF]>[DF] [FB]>c | d2 [DB]4 [DF]>[DF] | %3
 G>^F G>A [DB]>[Dc] [DB]>[DG] | A6 A>B | c>e d>c [DB]>[Fd] [Fc]>[FB] |[M:3/4] [FA]2 G4 | %7
[M:1/4] G>G |[M:4/4] F>F B>B B>A G>A |[M:3/4] [B,DB]6 |[M:1/4] B>A |[M:4/4] c6 z2 | %12
 [DB]2 [Fd]4 [Fd]>[Fd] | [Fc]>[Fc] [Fc]>[Fd] [=Ec]>[EB] [EA]>[EG] | z2 D2 E2 d>c | %15
 B2 B,>B, B,>B, [Fc]>[FB] | z2 [EG]4 z2 | F>F B>B B>A G>A |[M:3/4] [DB]6 |] %19
V:2
 z4 z2 [B,,F,]>[B,,F,] | [B,,B,]>[B,,B,] [B,,B,]>[B,,B,] [B,,B,]>[B,,B,] [D,B,]>[K:treble][F,A,F] | %2
 [B,F]2[K:bass] [B,,B,]4 [B,,B,]>[B,,B,] | %3
 [E,B,E]>[E,A,E] [E,B,E]>[E,CE] [B,,B,]>[B,,B,] [B,,B,]>[B,,B,] | [F,CE]6 [F,CE]>[F,B,E] | %5
 [F,A,E]>[F,A,G] [F,B,F]>[F,A,E] [B,,B,]>[B,,B,] [B,,A,]>[D,B,] |[M:3/4] [E,B,]2 [E,B,E]4 | %7
[M:1/4] [E,B,E]>[E,B,E] |[M:4/4] [F,B,D]>[F,B,D] [F,DF]>[F,DF] [F,CE]>[F,CE] [F,CE]>[F,CE] | %9
[M:3/4] B,,6 |[M:1/4] D>C |[M:4/4] E6 z2 | [B,,B,]2 [B,,B,]4 [B,,B,]>[B,,B,] | %13
 [C,A,]>[C,A,] [C,A,]>[C,A,] [C,G,]>[C,C] [C,C]>[C,B,] | F,2- [F,-B,]2 [F,C]2[K:treble] F>E | %15
 D2[K:bass] B,,>B,, B,,>B,, [C,A,]>[D,B,] | [E,B,]2 [E,B,]2 E,>E, [E,B,E]>[E,B,E] | %17
 [F,B,D]>[F,B,D] [F,DF]>[F,DF] [F,CE]>[F,CE] [F,CE]>[F,CE] |[M:3/4] [B,,B,]6 |] %19
V:3
 x8 | x8 | x8 | x8 | x8 | x8 |[M:3/4] x6 |[M:1/4] x2 |[M:4/4] x8 |[M:3/4] x6 |[M:1/4] x2 | %11
[M:4/4] z2 A,>A, A,>F G>A | x8 | x8 | F6 z2 | z2 [DF]4 z2 | [FA]2 z2 B,>B, G>G | x8 |[M:3/4] x6 |] %19
V:4
 x8 | x15/2[K:treble] x/ | x2[K:bass] x6 | x8 | x8 | x8 |[M:3/4] x6 |[M:1/4] x2 |[M:4/4] x8 | %9
[M:3/4] x6 |[M:1/4] x2 |[M:4/4] z2 F,>F, F,>[F,A,E] [F,A,E]>[F,CE] | x8 | x8 | %14
 [A,C]2 z2 z4[K:treble] | x2[K:bass] x6 | x8 | x8 |[M:3/4] x6 |] %19

